X:668
T:French Club Waltz
C:J. Patenaude
M:3/4 
Q:150
L:1/4
Z:<http://tunes.nhcountrydance.com>.
K:G
[|B/2A/2 |\
   "G" G2 D  | "G" D2 B/2A/2  | "C" G2 "C/B" E | "Am" E2 G/2F/2 |\
"G" G2 D    | "Em" G2 G/2F/2 | "Am" G A B     | "D7" A2 B/2A/2 |
"G" G2 D    | "G" D2 B/2A/2  | "C" G2 "C/B" E | "Am" E2 G/2F/2 |\
"G" G D>G   | "D7" F G A     | "G"  G3        | "G7"  G A B    |]
[| "C" c G>E | "C" C E G      | "G" B G>D      | "G"  B, D G    |\
"D7" A F>D  | "D7" B G A     | "G" G A ^A     | "G7" B c d     |
"C" c G>E   | "C" C E G      | "G" B G>D      | "G"  B, D G    |\
"D7" A F>D  | "D7" B G A     | "G" G2-G/2>A/2 | "G" G2 |]


